lib/icons/svg/home.svg

<!-- Generated by IcoMoon.io -->
<svg version="1.1" xmlns="http://www.w3.org/2000/svg" width="48" height="48" viewBox="0 0 48 48">
<title>home</title>
<path d="M8 28v14c0 1.105 0.895 2 2 2v0h8c1.105 0 2-0.895 2-2v0-12h8v12c0 1.105 0.895 2 2 2v0h8c1.105 0 2-0.895 2-2v0-14l-16-16z"></path>
<path d="M43.413 22.585l-1.413-1.413v-13.172h-8v5.172l-8.585-8.585c-0.362-0.363-0.862-0.587-1.415-0.587-0.554 0-1.055 0.225-1.417 0.589l-17.994 17.994c-0.381 0.365-0.617 0.877-0.617 1.445 0 1.105 0.895 2 2 2 0.566 0 1.078-0.235 1.442-0.614l0.001-0.001 16.586-16.586 16.585 16.585c0.364 0.374 0.872 0.607 1.435 0.607 1.105 0 2-0.895 2-2 0-0.563-0.233-1.072-0.608-1.436l-0.001-0z"></path>
</svg>

<svg xmlns="http://www.w3.org/2000/svg" width="48" height="48"><path d="M8 28v14a2 2 0 0 0 2 2h8a2 2 0 0 0 2-2V30h8v12a2 2 0 0 0 2 2h8a2 2 0 0 0 2-2V28L24 12z"/><path d="M43.413 22.585 42 21.172V8h-8v5.172l-8.585-8.585A1.991 1.991 0 0 0 24 4c-.554 0-1.055.225-1.417.589L4.589 22.583a2 2 0 1 0 2.825 2.831l.001-.001L24.001 8.827l16.585 16.585a2 2 0 1 0 2.827-2.829h-.001z"/></svg>
